X:1
T:Banks of the Ohio
C: Joe Harris or Traditional
Z: Tablature courtesy of jaabc2ps.exe
M:4/4
L:1/4)
K:D
Q:1/4=120
|D D F|"D"[D4F4]-|[DF] D C D|"A7"[C4E4]-|[CE] E F|\
[C4G4]-|[CG] A A/2 A3/2|"D"[D4F4]|z2 F A|[D4F4A4]-|\
[DFA] f e d|"G"[G4B4]|
z2 D3/2 E/2|"D"[D4F4]-|"A7"[DF] G F E|"D"D4|\
z2 D E|[D4F4]-|[DF] D C D|"A7"[C4E4]|\
z2 E F|[C4G4]-|[CG] A A A|"D"[D4F4]|
z2 F3/2 A/2|[D4F4A4]-|[DFA] f/2f/2 e d|"G"[G4B4]|z2 D3/2 E/2|"D"[D4F4]-|\
"A7"[DF] G/2G/2 F E|"D"D4|
W:1
W:I asked my love to go with me, To take a walk a little way,
W:And as we walked and as we talked, About our golden wedding day.
W:2
W:Then only say that you'll be mine, In no other arms entwine,
W:Down beside where the waters flow, Down by the banks of the Ohio.
W:3
W:I asked your mother for you, dear, And she said you were too young.
W:Only say that you'll be mine, Happiness in my home you'll find.
W:4
W:I held a knife against her breast, And gently in my arms she pressed,
W:Crying "Willie, Oh Willie don't murder me, For I'm unprepared for eternity."
W:5
W:I took her by her lily white hand, Led her down by where the waters stand.
W:I picked her up and I pitched her in, Watched  her as she floated down.
W:6
W:I started back home twixt 12 and 1, Crying "My God, what have I done
W:I've murdered the only woman I love, Because she would not be my bride."
